svg/sport/basketball_fill.svg

<?xml version="1.0" encoding="UTF-8"?>
<svg width="24px" height="24px" viewBox="0 0 24 24" version="1.1" xmlns="http://www.w3.org/2000/svg" xmlns:xlink="http://www.w3.org/1999/xlink">
    <title>basketball_fill</title>
    <g id="Icon" stroke="none" stroke-width="1" fill="none" fill-rule="evenodd">
        <g id="Sport" transform="translate(-432.000000, -48.000000)" fill-rule="nonzero">
            <g id="basketball_fill" transform="translate(432.000000, 48.000000)">
                <path d="M24,0 L24,24 L0,24 L0,0 L24,0 Z M12.5935,23.2578 L12.5819,23.2595 L12.5109,23.295 L12.4919,23.2987 L12.4767,23.295 L12.4057,23.2595 C12.3958,23.2564 12.387,23.259 12.3821,23.2649 L12.378,23.2758 L12.3609,23.7031 L12.3659,23.7235 L12.3769,23.7357 L12.4805,23.8097 L12.4953,23.8136 L12.5071,23.8097 L12.6107,23.7357 L12.6233,23.7197 L12.6267,23.7031 L12.6096,23.2758 C12.6076,23.2657 12.601,23.2593 12.5935,23.2578 Z M12.8584,23.1453 L12.8445,23.1473 L12.6598,23.2397 L12.6499,23.2499 L12.6472,23.2611 L12.6651,23.6906 L12.6699,23.7034 L12.6784,23.7105 L12.8793,23.8032 C12.8914,23.8069 12.9022,23.803 12.9078,23.7952 L12.9118,23.7812 L12.8777,23.1665 C12.8753,23.1546 12.8674,23.147 12.8584,23.1453 Z M12.143,23.1473 C12.1332,23.1424 12.1222,23.1453 12.1156,23.1526 L12.1099,23.1665 L12.0758,23.7812 C12.0751,23.7927 12.0828,23.8019 12.0926,23.8046 L12.1083,23.8032 L12.3092,23.7105 L12.3186,23.7024 L12.3225,23.6906 L12.3404,23.2611 L12.3372,23.2485 L12.3278,23.2397 L12.143,23.1473 Z" id="MingCute"></path>
                <path d="M12,13.4142 L13.458,14.8722 C11.8547,16.9323 11.3991,19.5963 12.0912,21.9996 C9.9283065,22.01917 7.76022363,21.3413783 5.9532134,19.9662248 L5.67095,19.7433 L12,13.4142 Z M14.8871,16.3013 L18.329,19.7433 C17.0736,20.7719 15.6264,21.4489 14.1185,21.7743 C13.4821,19.9658 13.7383,17.9133 14.8871,16.3013 Z M9.12781,10.542 L10.5858,12 L4.25674,18.329 C2.73188,16.468 1.97977,14.1855 2.00041,11.9088 C4.4037,12.6009 7.06765,12.1453 9.12781,10.542 Z M21.7743,14.1185 C21.4739308,15.5104077 20.8739734,16.8505947 19.9744278,18.0359472 L19.7433,18.329 L16.3013,14.8871 C17.9133,13.7383 19.9658,13.4821 21.7743,14.1185 Z M19.7433,5.67095 C21.2681,7.53199 22.0202,9.81447 21.9996,12.0912 C19.692432,11.426784 17.1450029,11.8200883 15.1222554,13.271113 L14.8722,13.458 L13.4142,12 L19.7433,5.67095 Z M11.9088,2.00041 C14.071665,1.980802 16.2397645,2.65860088 18.0467422,4.03380663 L18.329,4.25674 L12,10.5858 L10.542,9.12781 C12.1453,7.06765 12.6009,4.4037 11.9088,2.00041 Z M4.25674,5.67095 L7.6987,9.11291 C6.08673,10.2617 4.03421,10.5179 2.22574,9.88153 C2.55107,8.37364 3.22807,6.9264 4.25674,5.67095 Z M9.88153,2.22574 C10.4875967,3.94809238 10.284076,5.89180531 9.27095082,7.46549556 L9.11291,7.6987 L5.67095,4.25674 C6.9264,3.22807 8.37364,2.55107 9.88153,2.22574 Z" id="形状" fill="#09244B"></path>
            </g>
        </g>
    </g>
</svg>

<svg xmlns="http://www.w3.org/2000/svg" width="24" height="24"><g fill="none" fill-rule="nonzero"><path d="M24 0v24H0V0h24ZM12.594 23.258l-.012.002-.071.035-.02.004-.014-.004-.071-.036c-.01-.003-.019 0-.024.006l-.004.01-.017.428.005.02.01.013.104.074.015.004.012-.004.104-.074.012-.016.004-.017-.017-.427c-.002-.01-.009-.017-.016-.018Zm.264-.113-.014.002-.184.093-.01.01-.003.011.018.43.005.012.008.008.201.092c.012.004.023 0 .029-.008l.004-.014-.034-.614c-.003-.012-.01-.02-.02-.022Zm-.715.002a.023.023 0 0 0-.027.006l-.006.014-.034.614c0 .012.007.02.017.024l.015-.002.201-.093.01-.008.003-.011.018-.43-.003-.012-.01-.01-.184-.092Z"/><path fill="#09244B" d="m12 13.414 1.458 1.458A8.005 8.005 0 0 0 12.091 22a9.974 9.974 0 0 1-6.138-2.034l-.282-.223L12 13.414Zm2.887 2.887 3.442 3.442a9.941 9.941 0 0 1-4.21 2.031 6.008 6.008 0 0 1 .768-5.473Zm-5.76-5.759L10.587 12l-6.33 6.329A9.97 9.97 0 0 1 2 11.909a8.005 8.005 0 0 0 7.128-1.367Zm12.647 3.576a9.94 9.94 0 0 1-1.8 3.918l-.23.293-3.443-3.442a6.008 6.008 0 0 1 5.473-.769Zm-2.03-8.447A9.971 9.971 0 0 1 22 12.09a8.008 8.008 0 0 0-6.878 1.18l-.25.187L13.414 12l6.33-6.329ZM11.908 2a9.973 9.973 0 0 1 6.138 2.033l.282.223L12 10.586l-1.458-1.458A8.005 8.005 0 0 0 11.909 2ZM4.257 5.67l3.442 3.442a6.008 6.008 0 0 1-5.473.769 9.94 9.94 0 0 1 2.03-4.211Zm5.625-3.445a6.011 6.011 0 0 1-.611 5.24l-.158.233L5.67 4.257a9.94 9.94 0 0 1 4.21-2.031Z"/></g></svg>
